images_elementary_svg/cmd/sc_interactivetransparence.svg

<svg height="16" width="16" xmlns="http://www.w3.org/2000/svg" xmlns:xlink="http://www.w3.org/1999/xlink"><linearGradient id="a" gradientTransform="matrix(.45598 0 0 .4385 1.058 -6.944)" gradientUnits="userSpaceOnUse" x1="24" x2="24" y1="6.591" y2="41.414"><stop offset="0" stop-color="#fff"/><stop offset="0" stop-color="#fff" stop-opacity=".235"/><stop offset="1" stop-color="#fff" stop-opacity=".157"/><stop offset="1" stop-color="#fff" stop-opacity=".392"/></linearGradient><linearGradient id="b" gradientTransform="matrix(.99243 0 0 .9544 .09 -7.87)" gradientUnits="userSpaceOnUse" x1="7.284" x2="17.171" y1="6.993" y2="16.88"><stop offset="0" stop-color="#8cd5ff"/><stop offset="1" stop-color="#9bdb4d" stop-opacity=".206"/></linearGradient><linearGradient id="c" gradientTransform="matrix(.99243 0 0 .9544 .09 -7.87)" gradientUnits="userSpaceOnUse" x1="2.382" x2="21.571" y1="2.544" y2="21.733"><stop offset="0" stop-color="#002e99"/><stop offset="1" stop-color="#206b00"/></linearGradient><linearGradient id="d"><stop offset="0" stop-color="#fff"/><stop offset="1" stop-color="#fff" stop-opacity=".236"/></linearGradient><linearGradient id="e" gradientUnits="userSpaceOnUse" x1="6.415272" x2="9.090036" xlink:href="#f" y1="-1.596656" y2="1.078872"/><linearGradient id="f"><stop offset="0" stop-color="#898989"/><stop offset="1" stop-color="#fbfbfb"/></linearGradient><linearGradient id="g" gradientTransform="matrix(.55 0 0 .553 21 -220.658)" gradientUnits="userSpaceOnUse" x1="-8.688" x2="-8.688" xlink:href="#d" y1="410.109" y2="417.386"/><linearGradient id="h" gradientTransform="matrix(.3317 0 0 .3334 13.353 -138.304)" gradientUnits="userSpaceOnUse" x1="-8.688" x2="-8.688" xlink:href="#d" y1="410.109" y2="417.386"/><linearGradient id="i" gradientUnits="userSpaceOnUse" x1="15.609272" x2="18.284036" xlink:href="#f" y1="6.709344" y2="9.384872"/><path d="m12 0h4v4h-4zm-4 4h4v4h-4zm-4 4h4v4h-4zm4 4h4v4h-4zm4-4h4v4h-4z" fill="#b3b3b3"/><path d="m4 4h4v4h-4zm4-4h4v4h-4zm-4 12h4v4h-4zm8-8h4v4h-4zm-4 4h4v4h-4zm4 4h4v4h-4z" fill="#777"/><g transform="matrix(.7932 0 0 .8248 -1.518 5.046)"><rect fill="url(#b)" height="18.133" rx=".992" ry=".954" width="18.856" x="2.572" y="-5.485"/><path d="m3.8-4.286h16.424v15.814h-16.424z" style="opacity:.5;fill:none;stroke-width:1.236;stroke-linecap:round;stroke-linejoin:round;stroke:url(#a)"/><rect height="18.133" rx=".992" ry=".954" style="opacity:.5;fill:none;stroke-width:1.236;stroke-linecap:round;stroke-linejoin:round;stroke:url(#c)" width="18.856" x="2.572" y="-5.485"/><path d="m16.454 7.628-8.087-8.088-.48.48 8.09 8.086z" fill="#323232" stroke="#5a5a5a" stroke-width=".593"/><g stroke-linecap="round" stroke-width=".917"><path d="m14.31 5.445h4.583v4.584h-4.583z" fill="url(#i)" stroke="#5a5a5a" stroke-linejoin="round"/><path d="m15.226 6.362h2.75v2.75h-2.75z" fill="#fff" stroke="url(#g)"/><path d="m7.426-2.86c1.306.002 2.282.932 2.274 2.27-.01 1.445-.887 2.312-2.243 2.313-1.452 0-2.335-.938-2.34-2.298-.006-1.38.88-2.288 2.31-2.285z" fill="url(#e)" stroke="#5a5a5a" stroke-linejoin="round"/><path d="m7.393-1.95c.788.012 1.377.562 1.372 1.37-.005.87-.535 1.393-1.353 1.393-.938 0-1.408-.47-1.41-1.385-.004-.898.53-1.393 1.39-1.38z" fill="#fff" stroke="url(#h)"/></g></g></svg>

<svg xmlns="http://www.w3.org/2000/svg" xmlns:xlink="http://www.w3.org/1999/xlink" height="16" width="16"><defs><linearGradient x1="24" y1="6.591" x2="24" y2="41.414" id="g" xlink:href="#a" gradientUnits="userSpaceOnUse" gradientTransform="matrix(.45598 0 0 .4385 1.058 -6.944)"/><linearGradient id="a"><stop offset="0" stop-color="#fff"/><stop offset="0" stop-color="#fff" stop-opacity=".235"/><stop offset="1" stop-color="#fff" stop-opacity=".157"/><stop offset="1" stop-color="#fff" stop-opacity=".392"/></linearGradient><linearGradient gradientTransform="matrix(.99243 0 0 .9544 .09 -7.87)" xlink:href="#b" id="f" x1="7.284" y1="6.993" x2="17.171" y2="16.88" gradientUnits="userSpaceOnUse"/><linearGradient id="b"><stop offset="0" stop-color="#8cd5ff"/><stop offset="1" stop-color="#9bdb4d" stop-opacity=".206"/></linearGradient><linearGradient gradientTransform="matrix(.99243 0 0 .9544 .09 -7.87)" xlink:href="#c" id="h" x1="2.382" y1="2.544" x2="21.571" y2="21.733" gradientUnits="userSpaceOnUse"/><linearGradient id="c"><stop offset="0" stop-color="#002e99"/><stop offset="1" stop-color="#206b00"/></linearGradient></defs><linearGradient id="e"><stop offset="0" stop-color="#fff"/><stop offset="1" stop-color="#fff" stop-opacity=".236"/></linearGradient><linearGradient id="k" gradientTransform="matrix(.764 0 0 .764 -2.904 -308.034)" gradientUnits="userSpaceOnUse" x1="12.198" x2="15.699" xlink:href="#d" y1="401.096" y2="404.598"/><linearGradient id="d"><stop offset="0" stop-color="#898989"/><stop offset="1" stop-color="#fbfbfb"/></linearGradient><linearGradient id="j" gradientTransform="matrix(.55 0 0 .553 21 -220.658)" gradientUnits="userSpaceOnUse" x1="-8.688" x2="-8.688" xlink:href="#e" y1="410.109" y2="417.386"/><linearGradient id="l" gradientTransform="matrix(.3317 0 0 .3334 13.353 -138.304)" gradientUnits="userSpaceOnUse" x1="-8.688" x2="-8.688" xlink:href="#e" y1="410.109" y2="417.386"/><linearGradient id="i" gradientTransform="matrix(.764 0 0 .764 6.29 -299.728)" gradientUnits="userSpaceOnUse" x1="12.198" x2="15.699" xlink:href="#d" y1="401.096" y2="404.598"/><g fill="#b3b3b3"><path d="M12 0h4v4h-4zM8 4h4v4H8zM4 8h4v4H4zM8 12h4v4H8zM12 8h4v4h-4z"/></g><g fill="#777"><path d="M4 4h4v4H4zM8 0h4v4H8zM4 12h4v4H4zM12 4h4v4h-4zM8 8h4v4H8zM12 12h4v4h-4z"/></g><g transform="matrix(.7932 0 0 .8248 -1.518 5.046)"><rect y="-5.485" x="2.572" ry=".954" rx=".992" height="18.133" width="18.856" color="#000" overflow="visible" fill="url(#f)"/><path opacity=".5" fill="none" stroke="url(#g)" stroke-width="1.236" stroke-linecap="round" stroke-linejoin="round" d="M3.8-4.286h16.424v15.814H3.8z"/><rect y="-5.485" x="2.572" ry=".954" rx=".992" height="18.133" width="18.856" color="#000" overflow="visible" opacity=".5" fill="none" stroke="url(#h)" stroke-width="1.236" stroke-linecap="round" stroke-linejoin="round"/><path d="M16.454 7.628L8.367-.46l-.48.48 8.09 8.086z" stroke-width=".593" stroke="#5a5a5a" fill="#323232"/><g stroke-linecap="round" stroke-width=".917"><path d="M14.31 5.445h4.583v4.584H14.31z" stroke-linejoin="round" stroke="#5a5a5a" fill="url(#i)"/><path d="M15.226 6.362h2.75v2.75h-2.75z" stroke="url(#j)" fill="#fff"/><path d="M7.426-2.86c1.306.002 2.282.932 2.274 2.27-.01 1.445-.887 2.312-2.243 2.313-1.452 0-2.335-.938-2.34-2.298-.006-1.38.88-2.288 2.31-2.285z" stroke-linejoin="round" stroke="#5a5a5a" fill="url(#k)"/><path d="M7.393-1.95c.788.012 1.377.562 1.372 1.37C8.76.29 8.23.813 7.412.813c-.938 0-1.408-.47-1.41-1.385-.004-.898.53-1.393 1.39-1.38z" stroke="url(#l)" fill="#fff"/></g></g></svg>
